SVG_Azure_All/Azure Stack Plan.svg

<?xml version="1.0" encoding="UTF-8" standalone="no"?>
<!-- Generated by Microsoft Visio, SVG Export Azure Stack Plan.svg Page-1 -->

<svg
   xmlns:dc="http://purl.org/dc/elements/1.1/"
   xmlns:cc="http://creativecommons.org/ns#"
   xmlns:rdf="http://www.w3.org/1999/02/22-rdf-syntax-ns#"
   xmlns:svg="http://www.w3.org/2000/svg"
   xmlns="http://www.w3.org/2000/svg"
   xmlns:sodipodi="http://sodipodi.sourceforge.net/DTD/sodipodi-0.dtd"
   xmlns:inkscape="http://www.inkscape.org/namespaces/inkscape"
   width="0.62985897in"
   height="0.78750676in"
   viewBox="0 0 45.349777 56.700694"
   xml:space="preserve"
   class="st6"
   version="1.1"
   id="svg50"
   sodipodi:docname="Azure Stack Plan.svg"
   style="font-size:12px;overflow:visible;color-interpolation-filters:sRGB;fill:none;fill-rule:evenodd;stroke-linecap:square;stroke-miterlimit:3"
   inkscape:version="0.92.5 (2060ec1f9f, 2020-04-08)"><metadata
   id="metadata54"><rdf:RDF><cc:Work
       rdf:about=""><dc:format>image/svg+xml</dc:format><dc:type
         rdf:resource="http://purl.org/dc/dcmitype/StillImage" /></cc:Work></rdf:RDF></metadata><sodipodi:namedview
   pagecolor="#ffffff"
   bordercolor="#666666"
   borderopacity="1"
   objecttolerance="10"
   gridtolerance="10"
   guidetolerance="10"
   inkscape:pageopacity="0"
   inkscape:pageshadow="2"
   inkscape:window-width="640"
   inkscape:window-height="480"
   id="namedview52"
   showgrid="false"
   inkscape:zoom="1.2423103"
   inkscape:cx="30.235766"
   inkscape:cy="37.799794"
   inkscape:window-x="0"
   inkscape:window-y="0"
   inkscape:window-maximized="0"
   inkscape:current-layer="svg50" />
	<style
   type="text/css"
   id="style2">
	<![CDATA[
		.st1 {fill:#ffffff;stroke:none;stroke-linecap:butt;stroke-width:42.8916}
		.st2 {fill:url(#grad0-9)}
		.st3 {stroke:none;stroke-linecap:butt;stroke-width:42.8916}
		.st4 {fill:#0078d4;stroke:none;stroke-linecap:butt;stroke-width:42.8916}
		.st5 {fill:#83b9f9;stroke:none;stroke-linecap:butt;stroke-width:42.8916}
		.st6 {fill:none;fill-rule:evenodd;font-size:12px;overflow:visible;stroke-linecap:square;stroke-miterlimit:3}
	]]>
	</style>

	<defs
   id="Patterns_And_Gradients">
		<linearGradient
   id="grad0-9"
   x1="-5.8721264e-06"
   y1="76.714736"
   x2="50.708741"
   y2="76.714736"
   gradientTransform="scale(0.89432322,1.118164)"
   gradientUnits="userSpaceOnUse">
			<stop
   offset="0"
   stop-color="#0078d4"
   stop-opacity="1"
   id="stop4" />
			<stop
   offset="0.82"
   stop-color="#5ea0ef"
   stop-opacity="1"
   id="stop6" />
		</linearGradient>
	</defs>
	<g
   id="g48"
   transform="translate(-42.891931,-42.887753)">
		<title
   id="title10">Page-1</title>
		<g
   id="group7534-1"
   transform="translate(42.8916,-42.8919)">
			<title
   id="title12">Azure Stack Plan</title>
			<g
   id="group7535-2">
				<title
   id="title14">g23</title>
				<g
   id="group7536-3">
					<title
   id="title16">g17</title>
					<g
   id="shape7537-4"
   transform="translate(0.330571,-0.405432)">
						<title
   id="title18">path11</title>
						<path
   d="M 25.65,86.59 H 1.88 A 1.88425,1.9258 -180 0 0 0,88.52 v 52.03 a 1.88425,1.9258 -180 0 0 1.88,1.93 h 40.93 a 1.88425,1.9258 -180 0 0 1.88,-1.93 V 106.12 A 1.88425,1.9258 -180 0 0 42.81,104.2 H 29.22 a 1.8512,1.89202 0 0 1 -1.85,-1.89 V 88.52 a 1.8512,1.89202 -180 0 0 -1.72,-1.93 z"
   class="st1"
   id="path20"
   inkscape:connector-curvature="0"
   style="fill:#ffffff;stroke:none;stroke-width:42.89160156;stroke-linecap:butt" />
					</g>
					<g
   id="shape7538-6">
						<title
   id="title23">path13</title>
						<path
   d="m 24.96,88.62 v 13.08 a 4.69411,4.79761 -180 0 0 4.69,4.79 h 12.86 v 33.15 H 2.84 V 88.62 h 22.15 z m 1.02,-2.84 H 1.92 A 1.88425,1.9258 -180 0 0 0,87.71 v 52.84 a 1.88425,1.9258 -180 0 0 1.92,1.93 h 41.52 a 1.88425,1.9258 -180 0 0 1.91,-1.93 v -34.97 a 1.88425,1.9258 -180 0 0 -1.91,-1.92 H 29.65 A 1.88425,1.9258 0 0 1 27.77,101.7 V 87.71 a 1.88425,1.9258 -180 0 0 -1.79,-1.93 z"
   class="st2"
   id="path25"
   inkscape:connector-curvature="0"
   style="fill:url(#grad0-9)" />
						<path
   d="m 24.96,88.62 v 13.08 a 4.69411,4.79761 -180 0 0 4.69,4.79 h 12.86 v 33.15 H 2.84 V 88.62 h 22.15 m 0.99,-2.84 H 1.92 A 1.88425,1.9258 -180 0 0 0,87.71 v 52.84 a 1.88425,1.9258 -180 0 0 1.92,1.93 h 41.52 a 1.88425,1.9258 -180 0 0 1.91,-1.93 v -34.97 a 1.88425,1.9258 -180 0 0 -1.91,-1.92 H 29.65 A 1.88425,1.9258 0 0 1 27.77,101.7 V 87.71 a 1.88425,1.9258 -180 0 0 -1.79,-1.93"
   class="st3"
   id="path27"
   inkscape:connector-curvature="0"
   style="stroke:none;stroke-width:42.89160156;stroke-linecap:butt" />
					</g>
					<g
   id="shape7539-11"
   transform="translate(27.1068,-38.4823)">
						<title
   id="title30">path15</title>
						<path
   d="M 17.52,142.48 0,124.67 v 14.43 a 3.30571,3.3786 -180 0 0 3.31,3.38 z"
   class="st4"
   id="path32"
   inkscape:connector-curvature="0"
   style="fill:#0078d4;stroke:none;stroke-width:42.89160156;stroke-linecap:butt" />
					</g>
				</g>
				<g
   id="shape7540-13"
   transform="translate(14.4994,-10.7777)">
					<title
   id="title36">path19</title>
					<path
   d="M 22.26,123.18 H 1.57 a 1.3600071,1.39 -180 0 0 0,2.78 h 20.82 a 1.3600071,1.39 -180 0 0 0,-2.78 z m 0,8.25 H 1.57 a 1.35534,1.38523 -180 1 0 0,2.74 h 20.82 a 1.35534,1.38523 -180 1 0 0,-2.74 z m 0,8.28 H 1.57 a 1.35534,1.38523 -180 0 0 0,2.77 h 20.82 a 1.35534,1.38523 -180 0 0 0,-2.77 z"
   class="st5"
   id="path38"
   inkscape:connector-curvature="0"
   style="fill:#83b9f9;stroke:none;stroke-width:42.89160156;stroke-linecap:butt" />
				</g>
				<g
   id="shape7541-15"
   transform="translate(7.40479,-8.18395)">
					<title
   id="title41">path21</title>
					<path
   d="m 1.36,124.75 v -4.46 a 2.04954,2.09473 0 0 1 -0.63,0.23 L 0,120.73 v -1.39 a 7.57007,7.73699 -180 0 0 1.02,-0.4 4.23131,4.32461 -180 0 0 1.03,-0.48 h 1.06 v 6.29 z m -1.29,8.78 v -0.51 a 3.30571,3.3786 0 0 1 0,-0.87 7.4709,7.63564 0 0 1 0.36,-0.75 6.14862,6.2842 0 0 1 0.93,-0.88 2.87597,2.93938 -180 0 0 0.69,-0.57 c 0,0 0,-0.24 0.23,-0.3 a 0.462799,0.473004 -180 0 0 0,-0.37165 C 2.28,128.83 2.05,128.63 1.55,128.63 a 2.21483,2.26366 -180 0 0 -1.42,0.58 v -1.52 a 3.57017,3.64889 0 0 1 0.93,-0.38 4.16519,4.25704 0 0 1 0.92,0 2.314,2.36502 0 0 1 1.52,0.51 1.68591,1.72309 0 0 1 0.57,1.32 2.47928,2.53395 0 0 1 -0.3,1.15 3.80157,3.88539 0 0 1 -1.06,0.94 l -0.66,0.41 a 0.595028,0.608148 -180 0 0 -0.198343,0.33786 L 4.26,131.98 v 1.42 z m 4.1,7.03 a 1.48757,1.52037 0 0 1 -0.63,1.38 3.04125,3.10831 0 0 1 -1.75,0.51 3.63628,3.71646 0 0 1 -0.86,0 l -0.76,-0.24 v -1.45 a 1.6198,1.65551 -180 0 0 0.62,0.24 2.38011,2.43259 -180 0 0 0.73,0 1.98343,2.02716 -180 0 0 0.69,0 0.628085,0.641934 -180 0 0 0.2314,-0.43922 A 0.495856,0.50679 -180 0 0 2.044715,140.05399 3.30571,3.3786 -180 0 0 1.26,139.88 H 0.79 v -1.31 h 0.5 a 0.991713,1.01358 -180 0 0 0.760313,-0.20272 0.396685,0.405432 -180 0 0 0.2314,-0.43921 C 2.28,137.92 2.28,137.62 2.28,137.55 c 0,-0.07 -0.3,0 -0.56,0 a 2.57845,2.63531 -180 0 0 -1.16,0.34 v -1.39 a 4.06602,4.15568 0 0 1 1.52,-0.33 2.67762,2.73667 0 0 1 1.62,0.44 1.25617,1.28387 0 0 1 0.53,1.14 1.48757,1.52037 0 0 1 -0.3,0.95 1.48757,1.52037 0 0 1 -0.86,0.51 1.3884,1.41901 0 0 1 1,0.5 1.91731,1.95959 0 0 1 0.1,0.85 z"
   class="st4"
   id="path43"
   inkscape:connector-curvature="0"
   style="fill:#0078d4;stroke:none;stroke-width:42.89160156;stroke-linecap:butt" />
				</g>
			</g>
		</g>
	</g>
</svg>

<?xml version="1.0" encoding="UTF-8" standalone="no"?>
<!DOCTYPE svg PUBLIC "-//W3C//DTD SVG 1.1//EN" "http://www.w3.org/Graphics/SVG/1.1/DTD/svg11.dtd">
<!-- Generated by Microsoft Visio, SVG Export Azure Stack Plan.svg Page-1 -->
<svg xmlns="http://www.w3.org/2000/svg" xmlns:xlink="http://www.w3.org/1999/xlink" xmlns:ev="http://www.w3.org/2001/xml-events"
		width="1.82135in" height="1.97884in" viewBox="0 0 131.137 142.477" xml:space="preserve" color-interpolation-filters="sRGB"
		class="st6">
	<style type="text/css">
	<![CDATA[
		.st1 {fill:#ffffff;stroke:none;stroke-linecap:butt;stroke-width:42.8916}
		.st2 {fill:url(#grad0-9)}
		.st3 {stroke:none;stroke-linecap:butt;stroke-width:42.8916}
		.st4 {fill:#0078d4;stroke:none;stroke-linecap:butt;stroke-width:42.8916}
		.st5 {fill:#83b9f9;stroke:none;stroke-linecap:butt;stroke-width:42.8916}
		.st6 {fill:none;fill-rule:evenodd;font-size:12px;overflow:visible;stroke-linecap:square;stroke-miterlimit:3}
	]]>
	</style>

	<defs id="Patterns_And_Gradients">
		<linearGradient id="grad0-9" x1="0" y1="0" x2="1" y2="0" gradientTransform="rotate(-90 0.5 0.5)">
			<stop offset="0" stop-color="#0078d4" stop-opacity="1"/>
			<stop offset="0.82" stop-color="#5ea0ef" stop-opacity="1"/>
		</linearGradient>
	</defs>
	<g>
		<title>Page-1</title>
		<g id="group7361-1" transform="translate(42.8916,-42.8919)">
			<title>Azure Stack Plan</title>
			<g id="group7362-2">
				<title>g23</title>
				<g id="group7363-3">
					<title>g17</title>
					<g id="shape7364-4" transform="translate(0.330571,-0.405432)">
						<title>path11</title>
						<path d="M25.65 86.59 L1.88 86.59 A1.88425 1.9258 -180 0 0 -0 88.52 L0 140.55 A1.88425 1.9258 -180 0 0 1.88
									 142.48 L42.81 142.48 A1.88425 1.9258 -180 0 0 44.69 140.55 L44.69 106.12 A1.88425 1.9258 -180
									 0 0 42.81 104.2 L29.22 104.2 A1.8512 1.89202 0 0 1 27.37 102.31 L27.37 88.52 A1.8512 1.89202
									 -180 0 0 25.65 86.59 Z" class="st1"/>
					</g>
					<g id="shape7365-6">
						<title>path13</title>
						<path d="M24.96 88.62 L24.96 101.7 A4.69411 4.79761 -180 0 0 29.65 106.49 L42.51 106.49 L42.51 139.64 L2.84
									 139.64 L2.84 88.62 L24.99 88.62 L24.96 88.62 ZM25.98 85.78 L1.92 85.78 A1.88425 1.9258 -180
									 0 0 0 87.71 L0 140.55 A1.88425 1.9258 -180 0 0 1.92 142.48 L43.44 142.48 A1.88425 1.9258 -180
									 0 0 45.35 140.55 L45.35 105.58 A1.88425 1.9258 -180 0 0 43.44 103.66 L29.65 103.66 A1.88425
									 1.9258 0 0 1 27.77 101.7 L27.77 87.71 A1.88425 1.9258 -180 0 0 25.98 85.78 Z" class="st2"/>
						<path d="M24.96 88.62 L24.96 101.7 A4.69411 4.79761 -180 0 0 29.65 106.49 L42.51 106.49 L42.51 139.64 L2.84
									 139.64 L2.84 88.62 L24.99 88.62M25.98 85.78 L1.92 85.78 A1.88425 1.9258 -180 0 0 0 87.71 L0
									 140.55 A1.88425 1.9258 -180 0 0 1.92 142.48 L43.44 142.48 A1.88425 1.9258 -180 0 0 45.35 140.55
									 L45.35 105.58 A1.88425 1.9258 -180 0 0 43.44 103.66 L29.65 103.66 A1.88425 1.9258 0 0 1 27.77
									 101.7 L27.77 87.71 A1.88425 1.9258 -180 0 0 25.98 85.78" class="st3"/>
					</g>
					<g id="shape7366-11" transform="translate(27.1068,-38.4823)">
						<title>path15</title>
						<path d="M17.52 142.48 L0 124.67 L0 139.1 A3.30571 3.3786 -180 0 0 3.31 142.48 L17.52 142.48 Z" class="st4"/>
					</g>
				</g>
				<g id="shape7367-13" transform="translate(14.4994,-10.7777)">
					<title>path19</title>
					<path d="M22.26 123.18 L1.57 123.18 A1.35534 1.38523 -180 0 0 1.57 125.96 L22.39 125.96 A1.35534 1.38523 -180
								 0 0 22.39 123.18 L22.26 123.18 ZM22.26 131.43 L1.57 131.43 A1.35534 1.38523 -180 1 0 1.57 134.17
								 L22.39 134.17 A1.35534 1.38523 -180 1 0 22.39 131.43 L22.26 131.43 ZM22.26 139.71 L1.57 139.71 A1.35534
								 1.38523 -180 0 0 1.57 142.48 L22.39 142.48 A1.35534 1.38523 -180 0 0 22.39 139.71 L22.26 139.71
								 Z" class="st5"/>
				</g>
				<g id="shape7368-15" transform="translate(7.40479,-8.18395)">
					<title>path21</title>
					<path d="M1.36 124.75 L1.36 120.29 A2.04954 2.09473 0 0 1 0.73 120.52 L0 120.73 L0 119.34 A7.57007 7.73699 -180
								 0 0 1.02 118.94 A4.23131 4.32461 -180 0 0 2.05 118.46 L3.11 118.46 L3.11 124.75 L1.36 124.75 ZM0.07
								 133.53 L0.07 133.02 A3.30571 3.3786 0 0 1 0.07 132.15 A7.4709 7.63564 0 0 1 0.43 131.4 A6.14862
								 6.2842 0 0 1 1.36 130.52 A2.87597 2.93938 -180 0 0 2.05 129.95 C2.05 129.95 2.05 129.71 2.28 129.65
								 a0.462799 0.473004 -180 0 0 -1.37668E-14 -0.371646 C2.28 128.83 2.05 128.63 1.55 128.63 A2.21483
								 2.26366 -180 0 0 0.13 129.21 L0.13 127.69 A3.57017 3.64889 0 0 1 1.06 127.31 A4.16519 4.25704 0
								 0 1 1.98 127.31 A2.314 2.36502 0 0 1 3.5 127.82 A1.68591 1.72309 0 0 1 4.07 129.14 A2.47928 2.53395
								 0 0 1 3.77 130.29 A3.80157 3.88539 0 0 1 2.71 131.23 L2.05 131.64 a0.595028 0.608148 -180 0 0 -0.198343
								 0.33786 L4.26 131.98 L4.26 133.4 L0.07 133.53 ZM4.17 140.56 A1.48757 1.52037 0 0 1 3.54 141.94 A3.04125
								 3.10831 0 0 1 1.79 142.45 A3.63628 3.71646 0 0 1 0.93 142.45 L0.17 142.21 L0.17 140.76 A1.6198 1.65551
								 -180 0 0 0.79 141 A2.38011 2.43259 -180 0 0 1.52 141 A1.98343 2.02716 -180 0 0 2.21 141 a0.628085
								 0.641934 -180 0 0 0.2314 -0.439218 a0.495856 0.50679 -180 0 0 -0.396685 -0.50679 A3.30571 3.3786
								 -180 0 0 1.26 139.88 L0.79 139.88 L0.79 138.57 L1.29 138.57 a0.991713 1.01358 -180 0 0 0.760313
								 -0.202716 a0.396685 0.405432 -180 0 0 0.2314 -0.439218 C2.28 137.92 2.28 137.62 2.28 137.55 C2.28
								 137.48 1.98 137.55 1.72 137.55 A2.57845 2.63531 -180 0 0 0.56 137.89 L0.56 136.5 A4.06602 4.15568
								 0 0 1 2.08 136.17 A2.67762 2.73667 0 0 1 3.7 136.61 A1.25617 1.28387 0 0 1 4.23 137.75 A1.48757
								 1.52037 0 0 1 3.93 138.7 A1.48757 1.52037 0 0 1 3.07 139.21 A1.3884 1.41901 0 0 1 4.07 139.71 A1.91731
								 1.95959 0 0 1 4.17 140.56 Z" class="st4"/>
				</g>
			</g>
		</g>
	</g>
</svg>
